X: 40630
T: Toormore, The
R: slide
M: 12/8
K: Bminor
F2B BAB|d2e f2d|e2e efe|c2e a3|
F2B BAB|d2e f2d|e2d B2A|1 B3 BAG:|2 B3 d2e||
fgf efe|ded cdc|BAB edB|AFE F2E|
F2B BAB|d2e f2d|e2d B2A|1 B3 d2e:|2 B3 BAG||

